X: 40814
T: Trafaelais I Gymru
R: jig
M: 6/8
K: Dmajor
|:d3 dfe|dcd B2c|d2e cBA|dcd B2A|
dcd dfe|dcd B2c|d2e cBA|dcd A3:|
f2 g a2a|a2b a2g|fBB agf|gfe f2d|
fgf fed|efe edc|d2z d2z|BcB Bff|
fed e2f|dcB cBA|B3 B3||

